X:1
T:Gates of Praise
T:Gates of Praise
T:Edmund Simon Lorenz
T:Mary Elizabeth Servoss, 1884
T:Public Domain Courtesy of the Cyber Hymnal™
C:Edmund Simon Lorenz
Z:Public Domain
Z:Courtesy of the Cyber Hymnal™
%%score ( 1 2 ) ( 3 4 )
L:1/8
Q:1/4=110
M:4/4
K:C
V:1 treble 
V:2 treble 
V:3 bass 
V:4 bass 
V:1
 G2 | c3 G E2 C2 | [FA]6 [Fc]2 | [^Fd]3 [Fc] [FB]2 [Fc]2 | [Gd]6 G2 | [Ge]3 [Gd] [Gc]2 [EG]2 | %6
w: 1.~Lift|up the gates of|praise, That|we may en- ter|in, And|o’er sal- va- tion’s|
w: 2.~God’s|works re- veal His|might, His|ma- jes- ty and|grace; But|not the ten- der|
w: 3.~Then|let the voice of|praise To|heav’n- ly courts as-|cend, Till|with the songs the|
w: 4.~To|Him that hath re-|deemed Our|souls from sin’s dark|maze; The|hope and Sav- ior|
 [FA]2 [FB]2 [Gc]2 [Ad]2 | [Ge]3 [Ec] [Fd]2 [DB]2 | [Ec]6 ||"^Refrain" [Ge]2 | e6 [=Gd]2 | %11
w: walls pro- claim That|Christ re- deems from|sin.|||
w: Fa- ther’s love That|saves a dy- ing|race.|The|stars may|
w: an- gels sing Our|hal- le- lu- jahs|blend.|||
w: of man- kind, Be|ev- er- last- ing|praise.|||
 (c2 c2 c2) [Fc]2 | [^Fd]3 [Fc] [FB]2 [FA]2 | G6 G2 | [Ge]3 [Gd] [Gc]2 [EG]2 | %15
w: ||||
w: praise * * the|hand That decks the|sky a-|bove, But man a-|
w: ||||
w: ||||
 [FA]2 [FB]2 [Gc]2 [Ad]2 | [Ge]3 [Ec] [Fd]2 [DB]2 | [Ec]6 |] %18
w: |||
w: lone can tell the|power Of Christ’s re-|deem-|
w: |||
w: |||
V:2
 G2 | c3 G E2 C2 | x8 | x8 | x6 G2 | x8 | x8 | x8 | x6 || x2 | G2 ^G2 A2 x2 | A6 x2 | x8 | G6 G2 | %14
 x8 | x8 | x8 | x6 |] %18
V:3
 G,2 | C3 G, E,2 C,2 | [F,C]6 [F,A,]2 | [D,A,]3 [D,A,] [D,D]2 [D,A,]2 | [G,B,]6 [G,B,]2 | %5
w: ~|~ ~ ~ ~|~ ~|~ ~ ~ ~|~ ~|
 C2 [G,B,]2 [E,C]2 [C,C]2 | [F,C]2 [D,G,]2 [E,C]2 [F,C]2 | [G,C]3 G, [G,,G,]2 [G,,G,]2 | [C,G,]6 || %9
w: ~ ~ ~ ~|~ ~ ~ ~|~ ~ ~ ~|~|
 C2 | C2 [B,D]2 [A,C]2 [E,B,]2 | [F,A,]6 [F,A,]2 | A,3 A, D2 [D,C]2 | %13
w: ~|~ ~ ~ ~|~ ~|~ ~ ~ ~|
 [G,B,]2 [A,C]2 [B,D]2 [G,B,]2 | C2 [G,B,]2 [E,C]2 [C,C]2 | [F,C]2 [D,G,]2 [E,C]2 [F,C]2 | %16
w: ~ a- bove, *|||
 [G,C]3 G, [G,,G,]2 [G,,G,]2 | [C,G,]6 |] %18
w: ||
V:4
 G,2 | C3 G, E,2 C,2 | x8 | x8 | x8 | C2 x6 | x8 | x3 G, x4 | x6 || C2 | C2 x6 | x8 | D,6 x2 | x8 | %14
 C2 x6 | x8 | x3 G, x4 | x6 |] %18

